X:64
M:2/4
L:1/8
K:D
| A2 AB | Ad dc | BB c/B/A | Be Bc/B/ | 
| f2 fe | fd dc | BB c/B/A | Be Bc | 
f2 fe | fd dc | Be Bc | d2 d2 :|| 

